Sources/FrostedUI/Resources/Icons.xcassets/trophy20.imageset/trophy-20.svg

<svg width="20" height="20" viewBox="0 0 20 20" fill="none" xmlns="http://www.w3.org/2000/svg" data-fui-icon="true">
  <path
    fill-rule="evenodd"
    clip-rule="evenodd"
    d="M5 1C4.17157 1 3.5 1.67157 3.5 2.5V3H2.01214C0.900864 3 0 3.90087 0 5.01214V6.47573C0 8.28406 1.46594 9.75 3.27427 9.75H3.67393C4.29521 12.3801 6.51426 14.3929 9.24997 14.7072V17.5H6.75C6.33579 17.5 6 17.8358 6 18.25C6 18.6642 6.33579 19 6.75 19H13.25C13.6642 19 14 18.6642 14 18.25C14 17.8358 13.6642 17.5 13.25 17.5H10.75V14.7072C13.4857 14.3929 15.7048 12.3801 16.3261 9.75H16.7257C18.5341 9.75 20 8.28406 20 6.47573V5.01214C20 3.90087 19.0991 3 17.9879 3H16.5V2.5C16.5 1.67157 15.8284 1 15 1H5ZM1.5 6.47573C1.5 7.45563 2.29437 8.25 3.27427 8.25H3.5V4.5H2.01214C1.72929 4.5 1.5 4.72929 1.5 5.01214V6.47573ZM15 2.5L5 2.5V8.25C5 11.0114 7.23855 13.25 9.99997 13.25C12.7614 13.25 15 11.0114 15 8.25V2.5ZM18.5 6.47573C18.5 7.45563 17.7056 8.25 16.7257 8.25H16.5V4.5H17.9879C18.2707 4.5 18.5 4.72929 18.5 5.01214V6.47573Z"
    fill="currentColor"
  />
</svg>

<svg xmlns="http://www.w3.org/2000/svg" width="20" height="20" fill="none" data-fui-icon="true" viewBox="0 0 20 20"><path fill="currentColor" fill-rule="evenodd" d="M5 1a1.5 1.5 0 0 0-1.5 1.5V3H2.012C.901 3 0 3.9 0 5.012v1.464A3.274 3.274 0 0 0 3.274 9.75h.4a6.505 6.505 0 0 0 5.576 4.957V17.5h-2.5a.75.75 0 0 0 0 1.5h6.5a.75.75 0 0 0 0-1.5h-2.5v-2.793a6.51 6.51 0 0 0 5.576-4.957h.4A3.274 3.274 0 0 0 20 6.476V5.012C20 3.901 19.1 3 17.988 3H16.5v-.5A1.5 1.5 0 0 0 15 1zM1.5 6.476c0 .98.794 1.774 1.774 1.774H3.5V4.5H2.012a.51.51 0 0 0-.512.512zM15 2.5H5v5.75a5 5 0 1 0 10 0zm3.5 3.976c0 .98-.794 1.774-1.774 1.774H16.5V4.5h1.488c.283 0 .512.23.512.512z" clip-rule="evenodd"/></svg>
